X: 3
T: The Lark On The Strand
R: jig
M: 6/8
L: 1/8
K: Ador
~A3 ABc|BGE ~G3|ABA GBd|egd edB|~A3 ABc|BGE G2D|GBA G2B|dBG BdB:|GBd ~g3|gba gdB|GBd g2f|egd edB|GBd ~g3|gba ~g3|a2b age|edg edB:|


Tune 1634	Setting 1634

